contacts-outline.svg

<svg fill="currentColor" viewBox="0 0 24 24"><path d="M20 4H4c-1.1 0-2 .9-2 2v12c0 1.1.9 2 2 2h16c1.1 0 2-.9 2-2V6c0-1.1-.9-2-2-2m0 14H4V6h16zM4 0h16v2H4m0 20h16v2H4m8-12a2.5 2.5 0 0 0 0-5 2.5 2.5 0 0 0 0 5m0-3.5c.55 0 1 .45 1 1s-.45 1-1 1-1-.45-1-1 .45-1 1-1m5 7.5c0-2.1-3.31-3-5-3s-5 .9-5 3v1h10zm-8.19-.5c.61-.5 2.03-1 3.19-1 1.17 0 2.59.5 3.2 1z"/></svg>

<svg  viewBox="0 0 24 24" fill="currentColor"><path  d="M20 4H4C2.9 4 2 4.9 2 6V18C2 19.1 2.9 20 4 20H20C21.1 20 22 19.1 22 18V6C22 4.9 21.1 4 20 4M20 18H4V6H20V18M4 0H20V2H4M4 22H20V24H4M12 12C13.38 12 14.5 10.88 14.5 9.5S13.38 7 12 7 9.5 8.12 9.5 9.5 10.62 12 12 12M12 8.5C12.55 8.5 13 8.95 13 9.5S12.55 10.5 12 10.5 11 10.05 11 9.5 11.45 8.5 12 8.5M17 16C17 13.9 13.69 13 12 13S7 13.9 7 16V17H17V16M8.81 15.5C9.42 15 10.84 14.5 12 14.5C13.17 14.5 14.59 15 15.2 15.5H8.81Z"/></svg>
